X: 11
T: Paddy Fahey's
C: Paddy Fahey
Z: Thierry Masure
S: https://thesession.org/tunes/492#setting46212
R: reel
M: 4/4
L: 1/8
K: Gmaj
|:BG~G2 BdcA|BGBd cAAc|BG~G2 Bdeg|fgaf gedc|
BG~G2 BdcA|BGBd cAAc|BG~G2 Bdeg|1 fgaf ~g3z:|2 fgaf ~g3a||
|:bgag dgge|fdcA FGAg|bgaf gedc|dggf g3a|
bgag dg~g2|fdcA FGAc|BG~G2 Bdeg|1 fgaf ~g3a:|2 fgaf gedc||

